Numix-GalliumOS/64/mimetypes/application-vnd.oasis.opendocument.text-web-template.svg

<svg xmlns="http://www.w3.org/2000/svg" xmlns:xlink="http://www.w3.org/1999/xlink" width="64px" height="64px" viewBox="0 0 64 64" version="1.1">
<g id="surface1">
<path style=" stroke:none;fill-rule:nonzero;fill:rgb(43.921569%,60%,76.470588%);fill-opacity:1;" d="M 10.6875 0 C 9.3125 0 8 1.378906 8 2.8125 L 8 61.1875 C 8 62.539062 9.390625 64 10.6875 64 L 53.3125 64 C 54.609375 64 56 62.539062 56 61.1875 L 56 2.75 C 56 1.402344 54.597656 0 53.25 0 Z M 10.6875 0 "/>
<path style=" stroke:none;fill-rule:nonzero;fill:rgb(100%,100%,100%);fill-opacity:1;" d="M 22 26 L 22 28 L 42 28 L 42 26 Z M 22 26 "/>
<path style=" stroke:none;fill-rule:nonzero;fill:rgb(100%,100%,100%);fill-opacity:1;" d="M 21.109375 30.671875 L 21.109375 32.898438 L 43.320312 32.898438 L 43.320312 30.671875 Z M 21.109375 30.671875 "/>
<path style=" stroke:none;fill-rule:nonzero;fill:rgb(100%,100%,100%);fill-opacity:1;" d="M 22 36 L 22 38 L 42 38 L 42 36 Z M 22 36 "/>
<path style=" stroke:none;fill-rule:nonzero;fill:rgb(100%,100%,100%);fill-opacity:1;" d="M 31.34375 20.679688 L 31.34375 42.890625 L 33.089844 42.890625 L 33.089844 20.679688 Z M 31.34375 20.679688 "/>
<path style="fill:none;stroke-width:2;stroke-linecap:butt;stroke-linejoin:miter;stroke:rgb(100%,100%,100%);stroke-opacity:1;stroke-miterlimit:4;" d="M 20.440082 33.00346 C 18.442639 27.000275 18.442639 21.000605 20.440082 14.99742 " transform="matrix(1.110795,0,0,1.110738,5.55697,5.126947)"/>
<path style="fill:none;stroke-width:2;stroke-linecap:butt;stroke-linejoin:miter;stroke:rgb(100%,100%,100%);stroke-opacity:1;stroke-miterlimit:4;" d="M 27.466297 33.00346 C 29.470773 28.002564 29.470773 21.000605 27.466297 14.99742 " transform="matrix(1.110795,0,0,1.110738,5.55697,5.126947)"/>
<path style="fill:none;stroke-width:1.821;stroke-linecap:round;stroke-linejoin:miter;stroke:rgb(100%,100%,100%);stroke-opacity:1;stroke-miterlimit:4;" d="M 33.054316 27.317611 C 33.054316 32.344297 28.978747 36.420075 23.952319 36.420075 C 18.925891 36.420075 14.850322 32.344297 14.850322 27.317611 C 14.850322 22.290924 18.925891 18.215146 23.952319 18.215146 C 28.978747 18.215146 33.054316 22.290924 33.054316 27.317611 Z M 33.054316 27.317611 " transform="matrix(1.220113,0,0,1.220051,2.990299,-1.543714)"/>
<path style=" stroke:none;fill-rule:nonzero;fill:rgb(0%,0%,0%);fill-opacity:0.196078;" d="M 8 48 L 8 61.335938 C 8 62.632812 9.375 64 10.664062 64 L 53.335938 64 C 54.625 64 56 62.632812 56 61.335938 L 56 48 Z M 8 48 "/>
<path style=" stroke:none;fill-rule:nonzero;fill:rgb(100%,100%,100%);fill-opacity:1;" d="M 20.011719 56.554688 C 20.011719 57.085938 20.035156 57.585938 20.070312 58.050781 C 20.128906 58.507812 20.21875 58.90625 20.351562 59.246094 C 20.492188 59.589844 20.691406 59.855469 20.941406 60.054688 C 21.199219 60.253906 21.53125 60.351562 21.957031 60.351562 C 22.371094 60.351562 22.707031 60.253906 22.953125 60.054688 C 23.222656 59.855469 23.421875 59.589844 23.554688 59.246094 C 23.695312 58.890625 23.785156 58.492188 23.828125 58.035156 C 23.878906 57.574219 23.910156 57.085938 23.910156 56.554688 C 23.910156 56.027344 23.878906 55.539062 23.828125 55.082031 C 23.785156 54.605469 23.695312 54.207031 23.554688 53.867188 C 23.421875 53.527344 23.230469 53.261719 22.972656 53.058594 C 22.722656 52.859375 22.382812 52.761719 21.957031 52.761719 C 21.53125 52.761719 21.199219 52.859375 20.941406 53.058594 C 20.691406 53.261719 20.492188 53.535156 20.351562 53.882812 C 20.21875 54.222656 20.128906 54.625 20.070312 55.082031 C 20.035156 55.539062 20.011719 56.027344 20.011719 56.554688 M 17.523438 56.554688 C 17.523438 54.683594 17.914062 53.269531 18.695312 52.320312 C 19.480469 51.355469 20.566406 50.882812 21.957031 50.882812 C 23.402344 50.882812 24.5 51.355469 25.257812 52.320312 C 26.015625 53.269531 26.390625 54.683594 26.390625 56.554688 C 26.390625 58.433594 26.007812 59.847656 25.242188 60.8125 C 24.46875 61.757812 23.386719 62.234375 21.980469 62.234375 C 20.535156 62.234375 19.429688 61.757812 18.664062 60.8125 C 17.90625 59.847656 17.523438 58.433594 17.523438 56.554688 "/>
<path style=" stroke:none;fill-rule:nonzero;fill:rgb(100%,100%,100%);fill-opacity:1;" d="M 36.367188 51.121094 L 36.367188 52.917969 L 33.132812 52.917969 L 33.132812 62 L 30.664062 62 L 30.664062 52.917969 L 27.429688 52.917969 L 27.429688 51.121094 L 36.367188 51.121094 "/>
<path style=" stroke:none;fill-rule:nonzero;fill:rgb(100%,100%,100%);fill-opacity:1;" d="M 45.914062 51.121094 L 45.914062 62 L 43.46875 62 L 43.46875 57.210938 L 40.210938 57.210938 L 40.210938 62 L 37.765625 62 L 37.765625 51.121094 L 40.210938 51.121094 L 40.210938 55.414062 L 43.46875 55.414062 L 43.46875 51.121094 L 45.914062 51.121094 "/>
</g>
</svg>

<svg xmlns="http://www.w3.org/2000/svg" viewBox="0 0 64 64">
 <g>
  <path d="m 10.688 0 c -1.375 0 -2.688 1.379 -2.688 2.813 l 0 58.38 c 0 1.352 1.391 2.813 2.688 2.813 l 42.625 0 c 1.297 0 2.688 -1.461 2.688 -2.813 l 0 -58.44 c 0 -1.348 -1.402 -2.75 -2.75 -2.75 m -42.563 0" style="fill:#7099c2;fill-opacity:1;stroke:none;fill-rule:nonzero"/>
  <path d="m 22 26 l 0 2 l 20 0 l 0 -2 m -20 0" style="fill:#fff;fill-opacity:1;stroke:none;fill-rule:nonzero"/>
  <path d="m 21.11 30.672 l 0 2.227 l 22.21 0 l 0 -2.227 m -22.21 0" style="fill:#fff;fill-opacity:1;stroke:none;fill-rule:nonzero"/>
  <path d="m 22 36 l 0 2 l 20 0 l 0 -2 m -20 0" style="fill:#fff;fill-opacity:1;stroke:none;fill-rule:nonzero"/>
  <path d="m 31.344 20.68 l 0 22.21 l 1.746 0 l 0 -22.21 m -1.746 0" style="fill:#fff;fill-opacity:1;stroke:none;fill-rule:nonzero"/>
  <path d="m 20.44 33 c -1.997 -6 -1.997 -12 0 -18.01" transform="matrix(1.110795,0,0,1.110738,5.55697,5.126947)" style="stroke-opacity:1;fill:none;stroke-miterlimit:4;stroke:#fff;stroke-linecap:butt;stroke-linejoin:miter;stroke-width:2"/>
  <path d="m 27.466 33 c 2 -5 2 -12 0 -18.01" transform="matrix(1.110795,0,0,1.110738,5.55697,5.126947)" style="stroke-opacity:1;fill:none;stroke-miterlimit:4;stroke:#fff;stroke-linecap:butt;stroke-linejoin:miter;stroke-width:2"/>
  <path d="m 33.05 27.318 c 0 5.03 -4.076 9.102 -9.102 9.102 c -5.03 0 -9.102 -4.076 -9.102 -9.102 c 0 -5.03 4.076 -9.102 9.102 -9.102 c 5.03 0 9.102 4.076 9.102 9.102 m 0 0" transform="matrix(1.220113,0,0,1.220051,2.990299,-1.543714)" style="stroke-opacity:1;fill:none;stroke-miterlimit:4;stroke:#fff;stroke-linecap:round;stroke-linejoin:miter;stroke-width:1.821"/>
  <path d="m 8 48 l 0 13.336 c 0 1.297 1.375 2.664 2.664 2.664 l 42.672 0 c 1.289 0 2.664 -1.367 2.664 -2.664 l 0 -13.336 m -48 0" style="fill:#000;fill-opacity:0.196;stroke:none;fill-rule:nonzero"/>
  <path d="m 20.01 56.55 c 0 0.531 0.023 1.031 0.059 1.496 c 0.059 0.457 0.148 0.855 0.281 1.195 c 0.141 0.344 0.34 0.609 0.59 0.809 c 0.258 0.199 0.59 0.297 1.016 0.297 c 0.414 0 0.75 -0.098 0.996 -0.297 c 0.27 -0.199 0.469 -0.465 0.602 -0.809 c 0.141 -0.355 0.23 -0.754 0.273 -1.211 c 0.051 -0.461 0.082 -0.949 0.082 -1.48 c 0 -0.527 -0.031 -1.016 -0.082 -1.473 c -0.043 -0.477 -0.133 -0.875 -0.273 -1.215 c -0.133 -0.34 -0.324 -0.605 -0.582 -0.809 c -0.25 -0.199 -0.59 -0.297 -1.016 -0.297 c -0.426 0 -0.758 0.098 -1.016 0.297 c -0.25 0.203 -0.449 0.477 -0.59 0.824 c -0.133 0.34 -0.223 0.742 -0.281 1.199 c -0.035 0.457 -0.059 0.945 -0.059 1.473 m -2.488 0 c 0 -1.871 0.391 -3.285 1.172 -4.234 c 0.785 -0.965 1.871 -1.438 3.262 -1.438 c 1.445 0 2.543 0.473 3.301 1.438 c 0.758 0.949 1.133 2.363 1.133 4.234 c 0 1.879 -0.383 3.293 -1.148 4.258 c -0.773 0.945 -1.855 1.422 -3.262 1.422 c -1.445 0 -2.551 -0.477 -3.316 -1.422 c -0.758 -0.965 -1.141 -2.379 -1.141 -4.258" style="fill:#fff;fill-opacity:1;stroke:none;fill-rule:nonzero"/>
  <path d="m 36.37 51.12 l 0 1.797 l -3.234 0 l 0 9.08 l -2.469 0 l 0 -9.08 l -3.234 0 l 0 -1.797 l 8.938 0" style="fill:#fff;fill-opacity:1;stroke:none;fill-rule:nonzero"/>
  <path d="m 45.914 51.12 l 0 10.879 l -2.445 0 l 0 -4.789 l -3.258 0 l 0 4.789 l -2.445 0 l 0 -10.879 l 2.445 0 l 0 4.293 l 3.258 0 l 0 -4.293 l 2.445 0" style="fill:#fff;fill-opacity:1;stroke:none;fill-rule:nonzero"/>
 </g>
</svg>
